static/img/kroki/2482d4f6ed210a60caa276f861ff1d58.svg

<?xml version="1.0" encoding="us-ascii" standalone="no"?><svg xmlns="http://www.w3.org/2000/svg" xmlns:xlink="http://www.w3.org/1999/xlink" contentStyleType="text/css" height="374px" preserveAspectRatio="none" style="width:356px;height:374px;" version="1.1" viewBox="0 0 356 374" width="356px" zoomAndPan="magnify"><defs/><g><!--class gcp_forwarding_rule--><g id="elem_gcp_forwarding_rule"><rect codeLine="23" fill="#3D176E" height="39.7891" id="gcp_forwarding_rule" rx="2.5" ry="2.5" style="stroke:#000D19;stroke-width:0.5;" width="212" x="70" y="328.58"/><ellipse cx="85" cy="348.4745" fill="#ADD1B2" rx="11" ry="11" style="stroke:#181818;stroke-width:1.0;"/><path d="M87.9688,354.1152 Q87.3906,354.412 86.75,354.5527 Q86.1094,354.7089 85.4063,354.7089 Q82.9063,354.7089 81.5781,353.0683 Q80.2656,351.412 80.2656,348.287 Q80.2656,345.162 81.5781,343.5058 Q82.9063,341.8495 85.4063,341.8495 Q86.1094,341.8495 86.75,342.0058 Q87.4063,342.162 87.9688,342.4589 L87.9688,345.1777 Q87.3438,344.5995 86.75,344.3339 Q86.1563,344.0527 85.5313,344.0527 Q84.1875,344.0527 83.5,345.1308 Q82.8125,346.1933 82.8125,348.287 Q82.8125,350.3808 83.5,351.4589 Q84.1875,352.5214 85.5313,352.5214 Q86.1563,352.5214 86.75,352.2558 Q87.3438,351.9745 87.9688,351.3964 L87.9688,354.1152 Z " fill="#000000"/><text fill="#D9B8FF" font-family="Helvetica" font-size="17" lengthAdjust="spacing" textLength="170" x="104" y="354.3598">gcp_forwarding_rule</text></g><!--class gcp_resource--><g id="elem_gcp_resource"><rect codeLine="26" fill="#3D176E" height="39.7891" id="gcp_resource" rx="2.5" ry="2.5" style="stroke:#000D19;stroke-width:0.5;" width="150" x="7" y="167.79"/><ellipse cx="22" cy="187.6845" fill="#ADD1B2" rx="11" ry="11" style="stroke:#181818;stroke-width:1.0;"/><path d="M24.9688,193.3252 Q24.3906,193.622 23.75,193.7627 Q23.1094,193.9189 22.4063,193.9189 Q19.9063,193.9189 18.5781,192.2783 Q17.2656,190.622 17.2656,187.497 Q17.2656,184.372 18.5781,182.7158 Q19.9063,181.0595 22.4063,181.0595 Q23.1094,181.0595 23.75,181.2158 Q24.4063,181.372 24.9688,181.6689 L24.9688,184.3877 Q24.3438,183.8095 23.75,183.5439 Q23.1563,183.2627 22.5313,183.2627 Q21.1875,183.2627 20.5,184.3408 Q19.8125,185.4033 19.8125,187.497 Q19.8125,189.5908 20.5,190.6689 Q21.1875,191.7314 22.5313,191.7314 Q23.1563,191.7314 23.75,191.4658 Q24.3438,191.1845 24.9688,190.6064 L24.9688,193.3252 Z " fill="#000000"/><text fill="#D9B8FF" font-family="Helvetica" font-size="17" lengthAdjust="spacing" textLength="108" x="41" y="193.5698">gcp_resource</text></g><!--class load_balancer--><g id="elem_load_balancer"><rect codeLine="29" fill="#3D176E" height="39.7891" id="load_balancer" rx="2.5" ry="2.5" style="stroke:#000D19;stroke-width:0.5;" width="157" x="192.5" y="167.79"/><ellipse cx="207.5" cy="187.6845" fill="#ADD1B2" rx="11" ry="11" style="stroke:#181818;stroke-width:1.0;"/><path d="M210.4688,193.3252 Q209.8906,193.622 209.25,193.7627 Q208.6094,193.9189 207.9063,193.9189 Q205.4063,193.9189 204.0781,192.2783 Q202.7656,190.622 202.7656,187.497 Q202.7656,184.372 204.0781,182.7158 Q205.4063,181.0595 207.9063,181.0595 Q208.6094,181.0595 209.25,181.2158 Q209.9063,181.372 210.4688,181.6689 L210.4688,184.3877 Q209.8438,183.8095 209.25,183.5439 Q208.6563,183.2627 208.0313,183.2627 Q206.6875,183.2627 206,184.3408 Q205.3125,185.4033 205.3125,187.497 Q205.3125,189.5908 206,190.6689 Q206.6875,191.7314 208.0313,191.7314 Q208.6563,191.7314 209.25,191.4658 Q209.8438,191.1845 210.4688,190.6064 L210.4688,193.3252 Z " fill="#000000"/><text fill="#D9B8FF" font-family="Helvetica" font-size="17" lengthAdjust="spacing" textLength="115" x="226.5" y="193.5698">load_balancer</text></g><!--class resource--><g id="elem_resource"><rect codeLine="32" fill="#3D176E" height="39.7891" id="resource" rx="2.5" ry="2.5" style="stroke:#000D19;stroke-width:0.5;" width="113" x="119.5" y="7"/><ellipse cx="134.5" cy="26.8945" fill="#ADD1B2" rx="11" ry="11" style="stroke:#181818;stroke-width:1.0;"/><path d="M137.4688,32.5352 Q136.8906,32.832 136.25,32.9727 Q135.6094,33.1289 134.9063,33.1289 Q132.4063,33.1289 131.0781,31.4883 Q129.7656,29.832 129.7656,26.707 Q129.7656,23.582 131.0781,21.9258 Q132.4063,20.2695 134.9063,20.2695 Q135.6094,20.2695 136.25,20.4258 Q136.9063,20.582 137.4688,20.8789 L137.4688,23.5977 Q136.8438,23.0195 136.25,22.7539 Q135.6563,22.4727 135.0313,22.4727 Q133.6875,22.4727 133,23.5508 Q132.3125,24.6133 132.3125,26.707 Q132.3125,28.8008 133,29.8789 Q133.6875,30.9414 135.0313,30.9414 Q135.6563,30.9414 136.25,30.6758 Q136.8438,30.3945 137.4688,29.8164 L137.4688,32.5352 Z " fill="#000000"/><text fill="#D9B8FF" font-family="Helvetica" font-size="17" lengthAdjust="spacing" textLength="71" x="153.5" y="32.7798">resource</text></g><!--reverse link gcp_resource to gcp_forwarding_rule--><g id="link_gcp_resource_gcp_forwarding_rule"><path codeLine="35" d="M102.5105,223.3288 C120.5805,253.8488 146.53,297.69 164.62,328.25 " fill="none" id="gcp_resource-backto-gcp_forwarding_rule" style="stroke:#FFAF37;stroke-width:2.0;"/><polygon fill="none" points="93.34,207.84,97.3475,226.3856,107.6734,220.272,93.34,207.84" style="stroke:#FFAF37;stroke-width:2.0;"/></g><!--reverse link load_balancer to gcp_forwarding_rule--><g id="link_load_balancer_gcp_forwarding_rule"><path codeLine="36" d="M250.2984,223.2865 C232.0384,253.8065 205.78,297.69 187.5,328.25 " fill="none" id="load_balancer-backto-gcp_forwarding_rule" style="stroke:#FFAF37;stroke-width:2.0;"/><polygon fill="none" points="259.54,207.84,245.1496,220.2059,255.4473,226.367,259.54,207.84" style="stroke:#FFAF37;stroke-width:2.0;"/></g><!--reverse link resource to gcp_resource--><g id="link_resource_gcp_resource"><path codeLine="37" d="M155.4895,62.5388 C137.4195,93.0588 111.47,136.9 93.38,167.46 " fill="none" id="resource-backto-gcp_resource" style="stroke:#FFAF37;stroke-width:2.0;"/><polygon fill="none" points="164.66,47.05,150.3266,59.482,160.6525,65.5956,164.66,47.05" style="stroke:#FFAF37;stroke-width:2.0;"/></g><!--reverse link resource to load_balancer--><g id="link_resource_load_balancer"><path codeLine="38" d="M196.7016,62.4965 C214.9616,93.0165 241.22,136.9 259.5,167.46 " fill="none" id="resource-backto-load_balancer" style="stroke:#FFAF37;stroke-width:2.0;"/><polygon fill="none" points="187.46,47.05,191.5527,65.577,201.8504,59.4159,187.46,47.05" style="stroke:#FFAF37;stroke-width:2.0;"/></g><!--SRC=[XP1BRy8m48Jl-HMME4SAHMr0weKYLUq5LQLtjB7NnCAnexNJY3x-UqafbVE2wypdsHddIY33elG7Lc2H8Rd8xPKfWQ1WIo9Rhwosn2PIWfobNVFH6dyLM4E1x0drEth5eKkyvOhl3Jh7RWBh0VX-HxOouXJl2OmxMcXyGAqqEBVqdbHMUGpAY4Ksbx9BTaCdCp5Dxx27MH98VqYI96Aww29NJrtS_Kzir0UoQVXfQ-knLxDtufUwsB8XWfAzeMT_jECB2A7CZjq6skkf4ncabhx9GTYweILe5vvn7WcjFvIuwgt2nLp8T11-7eCZtdmTs_5oAotLG4t7BLKQsMSKVGSseRCLyPQkBOXj1XeCFou8Z3RSUdx_5SVnqC6edJRE3KITfQxNYen-0000]--></g></svg>

<svg xmlns="http://www.w3.org/2000/svg" width="356" height="374" viewBox="0 0 356 374"><rect width="212" height="39.789" x="70" y="328.58" fill="#3D176E" rx="2.5" ry="2.5" style="stroke:#000d19;stroke-width:.5"/><circle cx="85" cy="348.474" r="11" fill="#ADD1B2" style="stroke:#181818;stroke-width:1"/><path d="M87.969 354.115q-.578.297-1.219.438-.64.156-1.344.156-2.5 0-3.828-1.64-1.312-1.657-1.312-4.782t1.312-4.781q1.328-1.656 3.828-1.656.703 0 1.344.156.656.156 1.219.453v2.719q-.625-.579-1.219-.844-.594-.281-1.219-.281-1.344 0-2.031 1.078-.687 1.062-.687 3.156t.687 3.172q.688 1.062 2.031 1.062.625 0 1.219-.265.594-.281 1.219-.86z"/><text x="104" y="354.36" fill="#D9B8FF" font-family="Helvetica" font-size="17" textLength="170">gcp_forwarding_rule</text><rect width="150" height="39.789" x="7" y="167.79" fill="#3D176E" rx="2.5" ry="2.5" style="stroke:#000d19;stroke-width:.5"/><circle cx="22" cy="187.685" r="11" fill="#ADD1B2" style="stroke:#181818;stroke-width:1"/><path d="M24.969 193.325q-.578.297-1.219.438-.64.156-1.344.156-2.5 0-3.828-1.64-1.312-1.657-1.312-4.782t1.312-4.781q1.328-1.656 3.828-1.656.703 0 1.344.156.656.156 1.219.453v2.719q-.625-.578-1.219-.844-.594-.281-1.219-.281-1.343 0-2.031 1.078-.687 1.062-.687 3.156t.687 3.172q.688 1.062 2.031 1.062.625 0 1.219-.265.594-.281 1.219-.86z"/><text x="41" y="193.57" fill="#D9B8FF" font-family="Helvetica" font-size="17" textLength="108">gcp_resource</text><rect width="157" height="39.789" x="192.5" y="167.79" fill="#3D176E" rx="2.5" ry="2.5" style="stroke:#000d19;stroke-width:.5"/><circle cx="207.5" cy="187.685" r="11" fill="#ADD1B2" style="stroke:#181818;stroke-width:1"/><path d="M210.469 193.325q-.578.297-1.219.438-.64.156-1.344.156-2.5 0-3.828-1.64-1.312-1.657-1.312-4.782t1.312-4.781q1.328-1.656 3.828-1.656.703 0 1.344.156.656.156 1.219.453v2.719q-.625-.578-1.219-.844-.594-.281-1.219-.281-1.344 0-2.031 1.078-.687 1.062-.687 3.156t.687 3.172q.688 1.062 2.031 1.062.625 0 1.219-.265.594-.281 1.219-.86z"/><text x="226.5" y="193.57" fill="#D9B8FF" font-family="Helvetica" font-size="17" textLength="115">load_balancer</text><rect width="113" height="39.789" x="119.5" y="7" fill="#3D176E" rx="2.5" ry="2.5" style="stroke:#000d19;stroke-width:.5"/><circle cx="134.5" cy="26.895" r="11" fill="#ADD1B2" style="stroke:#181818;stroke-width:1"/><path d="M137.469 32.535q-.578.297-1.219.438-.64.156-1.344.156-2.5 0-3.828-1.64-1.312-1.657-1.312-4.782t1.312-4.781q1.328-1.656 3.828-1.656.703 0 1.344.156.656.156 1.219.453v2.719q-.625-.578-1.219-.844-.594-.281-1.219-.281-1.344 0-2.031 1.078-.687 1.062-.687 3.156t.687 3.172q.688 1.062 2.031 1.062.625 0 1.219-.265.594-.281 1.219-.86z"/><text x="153.5" y="32.78" fill="#D9B8FF" font-family="Helvetica" font-size="17" textLength="71">resource</text><path fill="none" d="M102.51 223.329c18.07 30.52 44.02 74.361 62.11 104.921M93.34 207.84l4.007 18.546 10.326-6.114zm156.958 15.447c-18.26 30.52-44.518 74.403-62.798 104.963m72.04-120.41-14.39 12.366 10.297 6.161z" style="stroke:#ffaf37;stroke-width:2"/><g fill="none"><path d="M155.49 62.539c-18.07 30.52-44.02 74.361-62.11 104.921" style="stroke:#ffaf37;stroke-width:2"/><path d="m164.66 47.05-14.333 12.432 10.326 6.114z" style="stroke:#ffaf37;stroke-width:2"/></g><path fill="none" d="M196.702 62.497c18.26 30.52 44.518 74.403 62.798 104.963M187.46 47.05l4.093 18.527 10.297-6.161z" style="stroke:#ffaf37;stroke-width:2"/></svg>
